X:1
T:Collier's Daughter,or... . PDF2.209, The
L:1/8
Q:1/2=100
M:2/2
I:linebreak $
K:Dmin
V:1 treble 
V:1
 dc | B2 G2 G2 G2 | G4 D4 | D2 F4 F2 | A2 c4 dc | B2 G2 G2 G2 | G4 D4 | cBAG cBAG | B2 d4 :: ef |$ %10
 gfed cded | c4 f4 | cBAG FGAB | A4 c4 | B2 G2 A2 D2 | B2 G2 A2 D2 | gfef g2 G2 | B2 d4 :| %18
